X:1
T:Azimuth's title screen
T:MD Steele Arr. Rayerdyne 
T:Birth of a Planet
T:Azimuth OST
T: 
T:MD Steele Arr. Rayerdyne 
T:Song of the Mermaids
T:Azimuth OST
T:High Ground
T:Azimuth OST
T:MD Steele Arr. Rayerdyne 
T:Lights On, Guns Out
T:Azimuth OST
T:MD Steele Arr. Rayerdyne 
T:I Came Home to a Coffin
T:Azimuth OST
T:MD Steele Arr.Rayerdyne 
T:What's Mine is Yours
T:Azimuth OST
T:Crystal Quest
T:MD Steele Arr. Rayerdyne 
T:Azimuth OST
T:Don't Take Me Come Over There
T:Azimuth OST
T:MD Steele Arr. Rayerdyne 
%%score { ( 1 4 5 ) | ( 2 3 ) } 6 7 ( 8 9 )
L:1/8
Q:1/4=160
M:4/4
K:Eb
V:1 treble nm="Piano" snm="Pno."
V:4 treble 
V:5 treble 
V:2 bass 
V:3 bass 
V:6 treble nm="Marimba" snm="Mrm."
V:7 bass transpose=-12 nm="Basse électrique" snm="B. él."
V:8 perc nm="Batterie" snm="Bat."
K:none
I:percmap A A 43 normal
I:percmap F F 35 normal
I:percmap ^b b 52 x
I:percmap ^c c 37 x
I:percmap ^e e 46 x
I:percmap ^g g 42 x
I:percmap _d d 54 diamond
I:percmap c c 38 normal
V:9 perc 
K:none
I:percmap F F 36 normal
I:percmap ^b b 52 x
I:percmap ^c c 37 x
I:percmap ^g g 42 x
I:percmap c c 38 normal
V:1
 z4 z2 cd | e6 fe | d4 B4 | G3 e3 d2 | c4 z Gcd | e6 fe | d4 B4 | g3 a3 g2 | f3 c3 d2 | e6 fe | %10
 d4 B4 | e3 d3 B2 | c6 cd | e6 fe | d4 B4 | c8 |] z4 x4[K:bass] |:[K:Bb][M:4/4][Q:1/4=150] z8 | %18
 z8 | z8 | z8 | z2 D,B,- B,CB,C | B,2 A,F,- F,2 B,,A,, | B,,2 C,2 D,2 E,2 | z8 |: %25
[K:treble] G2 BG AGFG- | GFBF AG F2 | G2 BG AGFG- |1 G2 [FG]2 z BBA :|2 G4 CDE"^Au début\n"F || %30
 GD B2 GABG | FG- G2 CDEF | GD B2 GABG | FG- G2 CDEF | G2 BG AGFE- | EB,BB, A2- AA | cBAB- BAGF- | %37
 FGAG G2- GG | BAGA- AGFE- | EFGF- FG.A z | BAGA- AG F2 | G8 |] z4 x4 || %43
[K:A][M:4/4][Q:1/4=125] z8 | z8 | z8 | z8 | z8 | z8 | z8 | z8 | A3/2F3/2F E3/2F3/2F | %52
 A>F- FF E>E- EA | A>F- FF E>A- AA | D>A- AA E>E- EA | A>F- FF E>F- FF | A>F- FF A>F- FF | %57
 A>F- FF E>A- AA | D>A- AA E>E- EA |: A>F- FF E>F- FF | A>F- FF A>A- AB | A>F- FF E>A- AA |1 %62
 D>A- AA E>A- AG :|2 D>A- AA E>A- AF- || F8 | z8 | z8 | z8 |: A>F- FF E>F- F z | A>F- FF A>A- AB | %70
 A>F- FF E>A- A z | D>A- A z E>A- A z :: A>F- FF E>F- FE | D>E- ED E>F- FG |1 A>F- FF A>B- Bc | %75
 d>c- cA B>A- AG :|2 A>F- FF A>G- GA || B>A- AB c>e- ef | a>f- ff e>f- ff | a>f- ff e>e- ea | %80
 a>f- ff e>a- aa | d>a- aa e>e- ea | a>f- ff e>f- ff | a>f- ff a>f- ff | a>f- ff e>a- aa | %85
 d>a- aa e>a- af | f8- | f8- | f8- | f8 | z4 ||[K:Eb] C/G/G/C/ A/A/C/G/ G/C/F/G/ E/F/E/B,/ | %92
 C/G/G/C/ A/A/C/G/ G/C/F/G/ E/F/E/B,/ | C/G/G/C/ A/A/C/G/ G/C/F/G/ E/F/E/B,/ | %94
 C/G/G/C/ A/A/C/G/ G/C/F/G/ E/F/E/B,/ |: C/G/G/C/ A/A/C/G/ G/C/F/G/ E/F/E/"^3x"B,/ :| %96
 C/G/G/C/ A/A/C/G/ G/C/F/G/ E/F/E/B,/ |:S C/G/G/C/ A/A/C/G/ G/C/F/G/ E/F/E/"^3x\n"B,/ :| %98
 C/G/G/C/ A/A/C/G/ G/C/F/G/ E/F/E/B,/ |: C/G/G/C/ A/A/C/G/ G/C/F/G/ E/F/E/B,/ | %100
 C/G/G/C/ A/A/C/G/ G/C/F/G/ E/F/E/B,/ | C/G/G/C/ A/A/C/G/ G/C/F/G/ E/F/E/B,/ | %102
 C/G/G/C/ A/A/C/G/ G/C/F/G/ E/F/E/B,/!D.S.! :: C/G/G/C/ A/A/C/G/ G/C/F/G/ E/F/E/B,/ | %104
 C/G/G/C/ A/A/C/G/ G/C/F/G/ E/F/E/B,/ | C/G/G/C/ A/A/C/G/ G/C/F/G/ E/F/E/B,/ | %106
 C/G/G/C/ A/A/C/G/ G/C/F/G/ E/F/E/B,/!D.S.! :| C2 D2 E2 D2 | C2 A2 B2 G2 | z4 G2 F2 | %110
[M:2/4] E2 D2 |[M:4/4] C/G/G/C/ A/A/C/G/ G/C/F/G/ E/F/E/B,/ |: %112
 C/G/G/C/ A/A/C/G/ G/C/F/G/ E/F/E/B,/ :| C/G/G/C/ A/A/C/G/ G/C/F/G/ E/F/E/B,/ |] z4 | z8 | z8 | %117
 .c'2 .c'2 .c'.c' z2 | z2 .c'.c' z c'>c' z | z8 | z8 | .c'2 .c'2 .c'.c' z2 | z2 .c'.c' z c'>c' z |: %123
S z8 | z8 | z8 | z8 | z8 | z8 | .c'2 .c'2 .c'.c' z2 | z2 .c'.c' z c'>c' z :| CE G2 F2 GA | %132
 E2 G2 D2 EF | C2 G2 FG A2 | E2 G2 D4 |: c/B/c BG AF G2 |{=B} c/_B/c BG d/B/d c2 | c/B/c BG AF G2 | %138
 B/c/B/cgf/ dB c2 :| z4!D.S.! x4[K:treble-8] ||[K:C][Q:1/4=115] z8 | z8 | z8 | z4 z2 z E/G/ |: %144
 A2 c2 dd/d/ e2 | fd/d/ ec/c/ d/c/B A2 :: A,2 C2 DD/D/ E2 | FD/D/ EC/C/ D/C/B, A,2 :| %148
 AE/E/ AE/E/ AE/E/ c2 | AE/E/ AE/E/ AE/E/ c2 |: z A c2 dd/d/ ed- | df dd/e/ d/c/B A2 | %152
 z c A2 B/A/G E2 | DD/D/ EE/E/ FF/F/ GG/G/ :: A2 c2 dd/d/ e2 | fd/d/ ec/c/ d/c/B A2 | %156
 A,2 C2 DD/D/ E2 | FD/D/ EC/C/ D/C/B, A,2 :| AE/E/ AE/E/ AE/E/ c2 | AE/E/ AE/E/ AE/E/ c2 |: %160
 z c A2 B/A/G E2 | DD/D/ EE/E/ FF/F/ GG/G/ | z c A2 B/A/G E2 | e/e/e dd f2 e/e/e :: %164
 aa c'2 d'/d'/d' e'd' | d'f' d'd'/e'/ d'/c'/b a2 | z c A2 B/A/G E2 | DD/D/ EE/E/ FF/F/ G/G/G :| %168
 A2 c2 dd/d/ e2 | fd/d/ ec/c/ d/c/B A2 |: A2 c2 dd/d/ e2 | fd/d/ ec/c/ d/c/B A2 :: %172
 A,2 C2 DD/D/ E2 | FD/D/ EC/C/ D/C/B, A,2 |] z4 :|[K:F][Q:1/4=120]"^\n" g z z2 z2 z g/g/ | %176
 g z z2 z2 f/f/f/f/ |: g z z2 g z z g/g/ | g z z2 g z f/f/f/"^3x\n"f/ :| [gg'] z z2 g z z g/g/ | %180
 g z z2 g z z2 |:!ff! g2 d2 G2 b2 | a2 f2 f2 d2 | ^d2 f2 g2 d2 | f2 g2 a2 f2 | g2 d2 G2 b2 | %186
 a2 c'2 b2 g2 | ^d2 f2 g2 d2 | f2 g2 a2 f2 :| [gg'] z z2 z2 z z | z z z2 z4 |:!ff! g2 d2 G2 b2 | %192
 a2 f2 f2 d2 | ^d2 f2 g2 d2 | f2 g2 a2 f2 | g2 d2 G2 b2 | a2 c'2 b2 g2 | ^d2 f2 g2 d2 |1 %198
 f2 g2 a2 f2 :|2!f! [dgb]4 [dfa]4 || [B^dg]4 [=df]4 | [Bdg]8 |] z8 || %203
[K:D][K:treble][Q:1/4=140] z8 | z8 | z8 | B,2 E2 G/F/E/D/ G/F/E/D/ |: B,3 C/D/ C3 D/E/ | %208
 D3 E/F/ E3 F/G/ |1 F-F/E-E/D E-E/D-D/C | D-D/C-C/B, C-C/B,-B,/^A, :| F-F/E-E/D E-E/F-F/G | %212
 F6 z E/F/ | GEGE F3 C | EC EB,/C/ DC B,B,/C/ | DB,DB, E2 z D/E/ | FGFE F3 E/F/ | GEGE F2 FG | %218
 FF/G/ FE DB, D2 | B,3 C/D/ C3 D/E/ | F-F/E-E/G F4 | G3 E F3 D | CC/D/ EC B,3 B, | %223
 ^A,F,A,F, B,F,B,F, | C^A,CA, B,3 D/E/ | F2 GE F3 D | CC/D/ EC B,3 B,/C/ | D3/2E3/2F E3/2F3/2G | %228
 A3/2F3/2D B,2 ^A,2!D.S.! | B,8- | B,8 |] z2 | z8 |] %233
V:2
 z8 | C,8 | G,8 | E,8 | D,4 B,,4 | C,8 | G,,8 | E,8 | B,,8 | C,8 | E,4 G,4 | E,2 C,2 D,2 B,,2 | %12
 C,8 | C,8 | B,,8 | C,8 |] z4 x4 |:[K:Bb][M:4/4] G,2- G,D- D2 G,A, | B,2- B,F- F4 | EB,DA, CA,EA, | %20
 DA,CA, B,G,A,^F, | G,2- G,D- D2 G,A, | B,2- B,F- F4 | EB,DA, CA,EA, | D8 |: G,2- G,D- D2 G,F, | %26
 G,2- G,D- D2 G,F, | E,2- E,B,- B,2 E,F, |1 D,2- D,A,- A,2 D,F, :|2 D,2- D,A,- A, z D,F, || %30
 G,2- G,D- D2 G,F, | G,2- G,D- D2 G,F, | E,2- E,B,- B,2 E,F, | D,2- D,A,- A,2 D,F, | %34
 G,D,B,D, G,D,B,E,- | E,B,,G,B,, E,B,,G,B,, | F,C,A,C, F,C,A,C, | F,C,A,D, G,D,B,D, | %38
 G,D,B,D, G,D,B,D, | E,B,,G,B,, E,B,,G,B,, | F,C,A,C, F,C,A,C, | G,D,B,D, G,4 |] z4 x4 || %43
[K:A][M:4/4] F,A,CA, E,G,B,G, | D,F,A,F, E,G,B,G, | F,A,CA, E,G,B,G, | D,F,A,F, E,G,B,G, | %47
 F,A,CA, E,G,B,G, | D,F,A,F, E,G,B,G, | F,A,CA, E,G,B,G, | D,F,A,F, E,G,B,G, | F,A,CA, E,G,B,G, | %52
 D,F,A,F, E,G,B,G, | F,A,CA, E,G,B,G, | D,F,A,F, E,G,B,G, | F,A,CA, E,G,B,G, | D,F,A,F, E,G,B,G, | %57
 F,A,CA, E,G,B,G, | D,F,A,F, E,G,B,G, |: F,A,CA, E,G,B,G, | D,F,A,F, E,G,B,G, | F,A,CA, E,G,B,G, |1 %62
 D,F,A,F, E,G,B,G, :|2 D,F,A,F, E,G,B,G, || .F,,3/2.A,,3/2A,, E,,3/2.A,,3/2A,, | %65
 D,,3/2.A,,3/2A,, E,,3/2.A,,3/2A,, | F,,3/2.A,,3/2A,, E,,3/2.A,,3/2A,, | %67
 D,,3/2.A,,3/2A,, E,,3/2.A,,3/2A,, |: F,A,CA, E,G,B,G, | D,F,A,F, E,G,B,G, | F,A,CA, E,G,B,G, | %71
 D,F,A,F, E,G,B,G, :: F,A,CA, E,G,B,G, | D,F,A,F, E,G,B,G, |1 F,A,CA, E,G,B,G, | %75
 D,F,A,F, E,G,B,G, :|2 F,A,CA, E,G,B,G, || D,F,A,F, E,G,B,G, | F,A,CA, E,G,B,G, | %79
 D,F,A,F, E,G,B,G, | F,A,CA, E,G,B,G, | D,F,A,F, E,G,B,G, | F,A,CA, E,G,B,G, | D,F,A,F, E,G,B,G, | %84
 F,A,CA, E,G,B,G, | D,F,A,F, E,G,B,G, | F,,3/2F,,3/2A,, G,,3/2E,,3/2E,, | %87
 D,,3/2D,,3/2D,, E,,3/2E,,3/2E,, | F,,3/2F,,3/2A,, G,,3/2E,,3/2E,, | D,,3/2D,,3/2D,, E,,4 | z4 || %91
[K:Eb] z8 | z8 |[K:bass] C,8- | C,8 |: z8 :| z8 |: z8 :| z4 z2 C,/B,,/E,/B,,/ |: %99
 C,4 z2 C,/B,,/A,,/E,/ | D,>B,,- B,,B,,- B,,2 z B,, | A,,>E,- E,D, z B,,-B,,B,, | %102
 A,,>E,- E,D, z B,,E,B,, :: C,4 z2 C,/B,,/A,,/E,/ | D,>B,,- B,,B,,- B,,2 z B,, | %105
 A,,>E,- E,D, z B,,-B,,B,, | A,,>E,- E,D, z B,,E,B,, :| C,2 D,2 E,2 D,2 | C,2 A,2 B,2 G,2 | %109
 F,F,G,G, E,E,F,F, |[M:2/4] G,,E,, F,,D,, |[M:4/4] C,,2 z4 z2 |: z8 :| z8 |] z4 | %115
 C,G,G,C, A,A,C,G, | G,C,F,G, E,F,E,B,, | C,G,G,C, A,A,C,G, | G,C,F,G, E,F,E,B,, | %119
 C,G,G,C, A,A,C,G, | G,C,F,G, E,F,E,B,, | C,G,G,C, A,A,C,G, | G,C,F,G, E,F,E,B,, |: %123
 C,G,G,C, A,A,C,G, | G,C,F,G, E,F,E,B,, | C,G,G,C, A,A,C,G, | G,C,F,G, E,F,E,B,, | %127
 C,G,G,C, A,A,C,G, | G,C,F,G, E,F,E,B,, | C,G,G,C, A,A,C,G, | G,C,F,G, E,F,E,B,, :| %131
 C,G,G,C, A,A,C,G, | G,C,F,G, E,F,E,B,, | C,G,G,C, A,A,C,G, | G,C,F,G, E,F,E,B,, |: %135
 C,G,G,C, A,A,C,G, | G,C,F,G, E,F,E,B,, | C,G,G,C, A,A,C,G, | G,C,F,G, E,F,E,B,, :| z4 x4 || %140
[K:C] E,,G,,/E,,/ E,,G,,/E,,/ E,,G,,/E,,/ E,,G,,/E,,/ | %141
 E,,G,,/E,,/ E,,G,,/E,,/ E,,G,,/E,,/ E,,D,, | E,,G,,/E,,/ E,,G,,/E,,/ E,,G,,/E,,/ E,,G,,/E,,/ | %143
 E,,G,,/E,,/ E,,G,,/E,,/ E,,G,,/E,,/ E,,D,, |: E,,G,,/E,,/ E,,G,,/E,,/ E,,G,,/E,,/ E,,G,,/E,,/ | %145
 E,,G,,/E,,/ E,,G,,/E,,/ E,,G,,/E,,/ E,,G,,/E,,/ :: %146
 E,,G,,/E,,/ E,,G,,/E,,/ E,,G,,/E,,/ E,,G,,/E,,/ | E,,G,,/E,,/ E,,G,,/E,,/ E,,G,,/E,,/ E,,D,, :| %148
 E,,G,,/E,,/ E,,G,,/E,,/ E,,G,,/E,,/ E,,G,,/E,,/ | E,,G,,/E,,/ E,,G,,/E,,/ E,,G,,/E,,/ E,,D,, |: %150
 E,,G,,/E,,/ E,,G,,/E,,/ E,,G,,/E,,/ E,,G,,/E,,/ | %151
 E,,G,,/E,,/ E,,G,,/E,,/ E,,G,,/E,,/ E,,G,,/E,,/ | %152
 E,,G,,/E,,/ E,,G,,/E,,/ E,,G,,/E,,/ E,,G,,/E,,/ | E,,G,,/E,,/ E,,G,,/E,,/ E,,G,,/E,,/ E,,D,, :: %154
 E,,G,,/E,,/ E,,G,,/E,,/ E,,G,,/E,,/ E,,G,,/E,,/ | %155
 E,,G,,/E,,/ E,,G,,/E,,/ E,,G,,/E,,/ E,,G,,/E,,/ | %156
 E,,G,,/E,,/ E,,G,,/E,,/ E,,G,,/E,,/ E,,G,,/E,,/ | %157
 E,,G,,/E,,/ E,,G,,/E,,/ E,,G,,/E,,/ E,,G,,/E,,/ :| %158
 E,,G,,/E,,/ E,,G,,/E,,/ E,,G,,/E,,/ E,,G,,/E,,/ | %159
 E,,G,,/E,,/ E,,G,,/E,,/ E,,G,,/E,,/ E,,G,,/E,,/ |: %160
 E,,G,,/E,,/ E,,G,,/E,,/ E,,G,,/E,,/ E,,G,,/E,,/ | %161
 E,,G,,/E,,/ E,,G,,/E,,/ E,,G,,/E,,/ E,,G,,/E,,/ | %162
 E,,G,,/E,,/ E,,G,,/E,,/ E,,G,,/E,,/ E,,G,,/E,,/ | %163
 E,,G,,/E,,/ E,,G,,/E,,/ E,,G,,/E,,/ E,,G,,/E,,/ :: %164
 E,,G,,/E,,/ E,,G,,/E,,/ E,,G,,/E,,/ E,,G,,/E,,/ | %165
 E,,G,,/E,,/ E,,G,,/E,,/ E,,G,,/E,,/ E,,G,,/E,,/ | %166
 E,,G,,/E,,/ E,,G,,/E,,/ E,,G,,/E,,/ E,,G,,/E,,/ | %167
 E,,G,,/E,,/ E,,G,,/E,,/ E,,G,,/E,,/ E,,G,,/E,,/ :| %168
 E,,G,,/E,,/ E,,G,,/E,,/ E,,G,,/E,,/ E,,G,,/E,,/ | %169
 E,,G,,/E,,/ E,,G,,/E,,/ E,,G,,/E,,/ E,,G,,/E,,/ |: %170
 E,,G,,/E,,/ E,,G,,/E,,/ E,,G,,/E,,/ E,,G,,/E,,/ | %171
 E,,G,,/E,,/ E,,G,,/E,,/ E,,G,,/E,,/ E,,G,,/E,,/ :: %172
 E,,G,,/E,,/ E,,G,,/E,,/ E,,G,,/E,,/ E,,G,,/E,,/ | %173
 E,,G,,/E,,/ E,,G,,/E,,/ E,,G,,/E,,/ E,,G,,/E,,/ |] z4 :|[K:F] z G, G,>G,- G,/G,/G, G, z | %176
 z G, G,>G,- G,/G,/G, z z |: z G, G,>G,- G,/G,/G, G, z | z G, G,>G,- G,/G,/G, z2 :| %179
 z G, G,>G,- G,/G,/G, G, z | z G, G,>G,- G,/G,/G, G, z |:[K:treble] GG, G,>G,- G,/G,/G, G,G/G/ | %182
 GG, G,>G,- G,/G,/G, F/F/F/F/ | GG, G,>G,- G,/G,/G, G,G/G/ | GG, G,>G,- G,/G,/G, F/F/F/F/ | %185
 GG, G,>G,- G,/G,/G, G,G/G/ | GG, G,>G,- G,/G,/G, F/F/F/F/ | GG, G,>G,- G,/G,/G, G,G/G/ | %188
 GG, G,>G,- G,/G,/G, F/F/F/F/ :| z G, G,>G,- G,/G,/G, G,G/G/ | GG, G,>G,- G,/G,/G, G, z |: %191
 GG, G,>G,- G,/G,/G, G,G/G/ | GG, G,>G,- G,/G,/G, F/F/F/F/ | GG, G,>G,- G,/G,/G, G,G/G/ | %194
 GG, G,>G,- G,/G,/G, F/F/F/F/ | GG, G,>G,- G,/G,/G, G,G/G/ | GG, G,>G,- G,/G,/G, F/F/F/F/ | %197
 GG, G,>G,- G,/G,/G, G,G/G/ |1 GG, G,>G,- G,/G,/G, F/F/F/F/ :|2[K:bass]!f! G,4 D,4 || %200
 ^D,4 [F,,C,F,]4 | [G,,D,]8 |] z8 ||[K:D] z8 | z8 | z8 | z8 |: B,,2 B,,2 A,,B,,-B,,F,,- | %208
 F,,F,,-F,,F,, A,,F,,A,,F,, |1 B,,2 B,,2 A,,B,,-B,,F,,- | F,,F,,-F,,F,, A,,F,,A,,F,, :| %211
 B,,2 B,,2 A,,B,,-B,,F,,- | F,,F,,-F,,F,, A,,F,,A,,F,, | %213
 B,,/E,/G,/E,/ B,,/E,/G,/E,/ B,,/D,/F,/D,/ B,,/D,/F,/D,/ | %214
 G,,/B,,/E,/B,,/ G,,/B,,/E,/B,,/ B,,/D,/F,/D,/ B,,/D,/F,/D,/ | %215
 B,,/D,/F,/D,/ B,,/D,/F,/D,/ B,,/E,/G,/E,/ B,,/E,/G,/E,/ | %216
 C,/F,/A,/F,/ C,/F,/A,/F,/ C/F/A/F/ C/A,/F,/C,/ | %217
 E,/G,/B,/G,/ E,/G,/B,/G,/ D,/F,/B,/F,/ D,/F,/B,/F,/ | %218
 C,/F,/A,/F,/ C,/F,/A,/F,/ B,,/D,/F,/D,/ B,,/D,/F,/D,/ | %219
 B,,/D,/F,/D,/ B,,/D,/F,/D,/ A,,/C,/E,/C,/ A,,/C,/E,/C,/ | %220
 C,/F,/A,/F,/ C,/F,/A,/F,/ C,/A,,/F,,/A,,/ C,/A,,/F,,/A,,/ | B,,2 z2 B,2 z2 | B,,2 z2 B,2 z2 | %223
 ^A,,2 z2 ^A,2 z2 | B,,2 z2 B,2 z2 | B,,2 z2 B,2 z2 | B,,2 z2 B,2 z2 | D,2 z2 E,2 z2 | %228
 F,2 z2 B,,2 z2 | z8 | z8 |] z2 | z8 |] %233
V:3
 x8 | C,4 C,4 | B,,4 B,,4 | G,,4 G,,4 | C,,4 C,,4 | C,4 C,4 | B,,4 B,,4 | G,4 G,4 | F,4 F,4 | %9
 C,4 C,4 | B,,4 B,,4 | G,,4 G,,4 | A,,4 A,,4 | G,,4 G,,4 | B,,4 B,,4 | x8 |] x8 |: %17
[K:Bb][M:4/4] x8 | x8 | x8 | x8 | x8 | x8 | x8 | D,8 |: x8 | x8 | x8 |1 x8 :|2 x8 || x8 | x8 | x8 | %33
 x8 | x8 | x8 | x8 | x8 | x8 | x8 | x8 | x8 |] x8 ||[K:A][M:4/4] x8 | x8 | x8 | x8 | x8 | x8 | x8 | %50
 x8 | x8 | x8 | x8 | x8 | x8 | x8 | x8 | x8 |: F,,3/2.A,,3/2A,, E,,3/2.A,,3/2A,, | %60
 D,,3/2.A,,3/2A,, E,,3/2.A,,3/2A,, | F,,3/2.A,,3/2A,, E,,3/2.A,,3/2A,, |1 %62
 D,,3/2.A,,3/2A,, E,,3/2.A,,3/2A,, :|2 D,,3/2.A,,3/2A,, E,,3/2.A,,3/2A,, || x8 | x8 | x8 | x8 |: %68
 F,,3/2A,,3/2A,, E,,3/2A,,3/2A,, | D,,3/2A,,3/2A,, E,,3/2A,,3/2A,, | %70
 F,,3/2A,,3/2A,, E,,3/2A,,3/2A,, | D,,3/2A,,3/2A,, E,,3/2A,,3/2A,, :: %72
 F,,3/2A,,3/2A,, E,,3/2A,,3/2A,, | D,,3/2A,,3/2A,, E,,3/2A,,3/2A,, |1 %74
 F,,3/2A,,3/2A,, E,,3/2A,,3/2A,, | D,,3/2A,,3/2A,, E,,3/2A,,3/2A,, :|2 %76
 F,,3/2A,,3/2A,, E,,3/2A,,3/2A,, || D,,3/2A,,3/2A,, E,,3/2A,,3/2A,, | %78
 F,,3/2A,,3/2A,, E,,3/2A,,3/2A,, | D,,3/2A,,3/2A,, E,,3/2A,,3/2A,, | %80
 F,,3/2A,,3/2A,, E,,3/2A,,3/2A,, | D,,3/2A,,3/2A,, E,,3/2A,,3/2A,, | %82
 F,,3/2A,,3/2A,, E,,3/2A,,3/2A,, | D,,3/2A,,3/2A,, E,,3/2A,,3/2A,, | %84
 F,,3/2A,,3/2A,, E,,3/2A,,3/2A,, | D,,3/2A,,3/2A,, E,,3/2A,,3/2A,, | x8 | x8 | x8 | x8 | x4 || %91
[K:Eb] x8 | x8 |[K:bass] x8 | x8 |: x8 :| x8 |: x8 :| x8 |: x8 | x8 | x8 | x8 :: x8 | x8 | x8 | %106
 x8 :| x8 | x8 | x8 |[M:2/4] x4 |[M:4/4] x8 |: x8 :| x8 |] x4 | x8 | x8 | x8 | x8 | C,,8- | C,,8- | %121
 C,,8- | C,,8 |: G,8 | D,8 | E,8 | F,8 | C,8- | C,8 | x8 | x8 :| x8 | x8 | x8 | x8 |: x8 | x8 | %137
 x8 | x8 :| x8 ||[K:C] x8 | x8 | x8 | x8 |: x8 | x8 :: x8 | x8 :| x8 | x8 |: x8 | x8 | x8 | x8 :: %154
 x8 | x8 | x8 | x8 :| x8 | x8 |: x8 | x8 | x8 | x8 :: x8 | x8 | x8 | x8 :| x8 | x8 |: x8 | x8 :: %172
 x8 | x8 |] x4 :|[K:F] x8 | x8 |: x8 | x8 :| x8 | x8 |:[K:treble] x8 | x8 | x8 | x8 | x8 | x8 | %187
 x8 | x8 :| x8 | x8 |: x8 | x8 | x8 | x8 | x8 | x8 | x8 |1 x8 :|2[K:bass] x8 || x8 | x8 |] x8 || %203
[K:D] x8 | x8 | x8 | x8 |: x8 | x8 |1 x8 | x8 :| x8 | x8 | x8 | x8 | x8 | x8 | x8 | x8 | x8 | x8 | %221
 x8 | x8 | x8 | x8 | x8 | x8 | x8 | x8 | x8 | x8 |] x2 | x8 |] %233
V:4
 x8 | x8 | x8 | x8 | x8 | x8 | x8 | x8 | x8 | x8 | x8 | x8 | x8 | x8 | x8 | x8 |] x8[K:bass] |: %17
[K:Bb][M:4/4] x8 | x8 | x8 | x8 | x8 | x8 | x8 | x8 |:[K:treble] x8 | x8 | x8 |1 x4 E4 :|2 x8 || %30
 x8 | x8 | x8 | x8 | x8 | x8 | x8 | x8 | x8 | x8 | x8 | x8 |] x8 ||[K:A][M:4/4] x8 | x8 | x8 | x8 | %47
 x8 | x8 | x8 | x8 | x8 | x8 | x8 | x8 | x8 | x8 | x8 | x8 |: x8 | x8 | x8 |1 x8 :|2 x8 || x8 | %65
 x8 | x8 | x8 |: x8 | x8 | x8 | x8 :: x8 | x8 |1 x8 | x8 :|2 x8 || x8 | x8 | x8 | x8 | x8 | x8 | %83
 x8 | x8 | x8 | x8 | x8 | x8 | x8 | x4 ||[K:Eb] x8 | x8 | x8 | x8 |: x8 :| x8 |: x8 :| x8 |: x8 | %100
 x8 | x8 | x8 :: x8 | x8 | x8 | x8 :| x8 | x8 | x8 |[M:2/4] x4 |[M:4/4] C4 z4 |: x8 :| x8 |] x4 | %115
 x8 | x8 | x8 | x8 | x8 | x8 | x8 | x8 |: x8 | x8 | x8 | x8 | x8 | x8 | x8 | x8 :| x8 | x8 | x8 | %134
 x8 |: x8 | x8 | x8 | x8 :| x8[K:treble-8] ||[K:C] x8 | x8 | x8 | x8 |: x8 | x8 :: x8 | x8 :| x8 | %149
 x8 |: x8 | x8 | x8 | x8 :: x8 | x8 | x8 | x8 :| x8 | x8 |: a z a z a z a z | a z a z ge a/a/a | %162
 aa c'2 d'/d'/d' e'd' | ac'ac' ge a2 :: x8 | x8 | aa c'2 d'/d'/d' e'd' | %167
 d'f' d'd'/e'/ d'/c'/b a2 :| a8 | z8 |: x8 | x8 :: x8 | x8 |] x4 :|[K:F] x8 | x8 |: x8 | x8 :| x8 | %180
 x8 |: x8 | x8 | x8 | x8 | x8 | x8 | x8 | x8 :| x8 | x8 |: x8 | x8 | x8 | x8 | x8 | x8 | x8 |1 %198
 x8 :|2 x8 || x8 | x8 |] x8 ||[K:D][K:treble] x8 | x8 | x8 | x8 |: x8 | x8 |1 x8 | x8 :| x8 | x8 | %213
 x8 | x8 | x8 | x8 | x8 | x8 | x8 | x8 | z2 B2 z2 B2 | z2 B2 z2 B2 | z2 ^A2 z2 A2 | z2 B2 z2 B2 | %225
 z2 B2 z2 B2 | z2 B2 z2 B2 | z2 d2 z2 e2 | z2 f2 z2 ^A2 | b4 b4 | b4 b4 |] x2 | x8 |] %233
V:5
 x8 | x8 | x8 | x8 | x8 | x8 | x8 | x8 | x8 | x8 | x8 | x8 | x8 | x8 | x8 | x8 |] x8[K:bass] |: %17
[K:Bb][M:4/4] x8 | x8 | x8 | x8 | x8 | x8 | x8 | x8 |:[K:treble] x8 | x8 | x8 |1 x8- :|2 z8 || x8 | %31
 x8 | x8 | x8 | x8 | x8 | x8 | x8 | x8 | x8 | x8 | x8 |] x8 ||[K:A][M:4/4] x8 | x8 | x8 | x8 | x8 | %48
 x8 | x8 | x8 | x8 | x8 | x8 | x8 | x8 | x8 | x8 | x8 |: x8 | x8 | x8 |1 x8 :|2 x8 || x8 | x8 | %66
 x8 | x8 |: x8 | x8 | x8 | x8 :: x8 | x8 |1 x8 | x8 :|2 x8 || x8 | x8 | x8 | x8 | x8 | x8 | x8 | %84
 x8 | x8 | x8 | x8 | x8 | x8 | x4 ||[K:Eb] x8 | x8 | x8 | x8 |: x8 :| x8 |: x8 :| x8 |: x8 | x8 | %101
 x8 | x8 :: x8 | x8 | x8 | x8 :| x8 | x8 | x8 |[M:2/4] x4 |[M:4/4] x8 |: x8 :| x8 |] x4 | x8 | x8 | %117
 x8 | x8 | x8 | x8 | x8 | x8 |: x8 | x8 | x8 | x8 | x8 | x8 | x8 | x8 :| x8 | x8 | x8 | x8 |: x8 | %136
 x8 | x8 | x8 :| x8[K:treble-8] ||[K:C] x8 | x8 | x8 | x8 |: x8 | x8 :: x8 | x8 :| x8 | x8 |: x8 | %151
 x8 | x8 | x8 :: x8 | x8 | x8 | x8 :| x8 | x8 |: x8 | x8 | x8 | x8 :: x8 | x8 | x8 | x8 :| x8 | %169
 x8 |: x8 | x8 :: x8 | x8 |] x4 :|[K:F] x8 | x8 |: x8 | x8 :| x8 | x8 |: x8 | x8 | x8 | x8 | x8 | %186
 x8 | x8 | x8 :| x8 | x8 |: x8 | x8 | x8 | x8 | x8 | x8 | x8 |1 x8 :|2 x8 || x8 | x8 |] x8 || %203
[K:D][K:treble] x8 | x8 | x8 | x8 |: x8 | x8 |1 x8 | x8 :| x8 | x8 | x8 | x8 | x8 | x8 | x8 | x8 | %219
 x8 | x8 | x8 | x8 | x8 | x8 | x8 | x8 | x8 | x8 | x8 | x8 |] x2 | x8 |] %233
V:6
 z8 | z8 | z8 | z8 | z8 | z8 | z8 | z8 | z8 | z8 | z8 | z8 | z8 | z8 | z8 | z8 |] z4 |: %17
[K:Bb][M:4/4] z8 | z8 | z8 | z8 | z8 | z8 | z8 | z8 |: z8 | z8 | z8 |1 z8 :|2 z8 || z8 | z8 | z8 | %33
 z8 | z8 | z8 | z8 | z8 | z8 | z8 | z8 | z8 |] z4 ||[K:A][M:4/4] z8 | z8 | z8 | z8 | z8 | z8 | z8 | %50
 z8 | z8 | z8 | z8 | z8 | z8 | z8 | z8 | z8 |: z8 | z8 | z8 |1 z8 :|2 z8 || z8 | z8 | z8 | z8 |: %68
 z8 | z8 | z8 | z8 :: z8 | z8 |1 z8 | z8 :|2 z8 || z8 | z8 | z8 | z8 | z8 | z8 | z8 | z8 | z8 | %86
 z8 | z8 | z8 | z8 | z4 ||[K:Eb] z8 | z8 | z8 | z8 |: z8 :| z8 |: z8 :| z8 |: z8 | z8 | z8 | z8 :: %103
 c2 e/d/c/B/ cd/e/ f2 | c/d/e/d/ c/B/c/e/ d>B- BB | A/A/ z/ e/ e/ z/ d/d/ z/ d/B z/ B/B/ z/ | %106
 A/A/ z/ e/ e/ z/ d/d/ z BeB :| c/c/ z/ d/ d/ z/ e/e/ z/ d/d/d/ d/c/c/c/ | %108
 ab/b/ z/ g/g/ z/ g/g/f/g/ a/g/f/e/ | d/e/d/e/ f/g/a/b/ g/g/g/ z/ ff/f/ |[M:2/4] e/e/e d/d/d | %111
[M:4/4] c2 z4 z2 |: z8 :| z8 |] z4 | z8 | z8 | z8 | z8 | z8 | z8 | z8 | z8 |: z8 | z8 | z8 | z8 | %127
 z8 | z8 | z8 | z8 :| z8 | z8 | z8 | z8 |: z8 | z8 | z8 | z8 :| z4 ||[K:C] z8 | z8 | z8 | z8 |: %144
 z8 | z8 :: z8 | z8 :| z8 | z8 |: z8 | z8 | z8 | z8 :: z8 | z8 | z8 | z8 :| z8 | z8 |: z8 | z8 | %162
 z8 | z8 :: z8 | z8 | z8 | z8 :| z8 | z8 |: z8 | z8 :: z8 | z8 |] z4 :|[K:F] z8 | z8 |: z8 | z8 :| %179
 z8 | z8 |: z8 | z8 | z8 | z8 | z8 | z8 | z8 | z8 :| z8 | z8 |: z8 | z8 | z8 | z8 | z8 | z8 | z8 |1 %198
 z8 :|2 z8 || z8 | z8 |] z8 ||[K:D] z8 | z8 | z8 | z8 |: z8 | z8 |1 z8 | z8 :| z8 | z8 | z8 | z8 | %215
 z8 | z8 | z8 | z8 | z8 | z8 | z8 | z8 | z8 | z8 | z8 | z8 | z8 | z8 | z8 | z8 |] z2 | z8 |] %233
V:7
 z8 | z8 | z8 | z8 | z8 | z8 | z8 | z8 | z8 | z8 | z8 | z8 | z8 | z8 | z8 | z8 |] z4 |: %17
[K:Bb][M:4/4] z8 | z8 | z8 | z8 | z8 | z8 | z8 | z8 |: z8 | z8 | z8 |1 z8 :|2 z8 || z8 | z8 | z8 | %33
 z8 | z8 | z8 | z8 | z8 | z8 | z8 | z8 | z8 |] z4 ||[K:A][M:4/4] z8 | z8 | z8 | z8 | z8 | z8 | z8 | %50
 z8 | z8 | z8 | z8 | z8 | z8 | z8 | z8 | z8 |: z8 | z8 | z8 |1 z8 :|2 z8 || z8 | z8 | z8 | z8 |: %68
 z8 | z8 | z8 | z8 :: z8 | z8 |1 z8 | z8 :|2 z8 || z8 | z8 | z8 | z8 | z8 | z8 | z8 | z8 | z8 | %86
 z8 | z8 | z8 | z8 | z4 ||[K:Eb] z8 | z8 | z8 | z8 |: z8 :| z8 |: z8 :| z8 |: z8 | z8 | z8 | z8 :: %103
 z8 | z8 | z8 | z8 :| z8 | z8 | z8 |[M:2/4] z4 |[M:4/4] z8 |: z8 :| z8 |] z4 | z8 | z8 | z8 | z8 | %119
 C,8- | C,8- | C,8- | C,8 |: G,,8 | D,8 | E,8 | F,8 | C,8- | C,8 | z8 | z8 :| %131
 C,2 C,2 B,,B,, B,,/C,/G,, | C,2 C,2 B,,B,, B,,/C,/G,, | C,2 C,2 B,,B,, B,,/C,/G,, | %134
 C,2 C,2 B,,B,, B,,/C,/G,, |: C,2 C,2 B,,B,, B,,/C,/G,, | C,2 C,2 B,,B,, B,,/C,/G,, | %137
 C,2 C,2 B,,B,, B,,/C,/G,, | C,2 C,2 B,,B,, B,,/C,/G,, :| z4 ||[K:C] z8 | z8 | z8 | z8 |: z8 | %145
 z8 :: z8 | z8 :| z8 | z8 |: z8 | z8 | z8 | z8 :: z8 | z8 | z8 | z8 :| z8 | z8 |: z8 | z8 | z8 | %163
 z8 :: z8 | z8 | z8 | z8 :| z8 | z8 |: z8 | z8 :: z8 | z8 |] z4 :|[K:F] z8 | z8 |: z8 | z8 :| z8 | %180
 z8 |: z8 | z8 | z8 | z8 | z8 | z8 | z8 | z8 :| z8 | z8 |: z8 | z8 | z8 | z8 | z8 | z8 | z8 |1 %198
 z8 :|2 z8 || z8 | z8 |] z8 ||[K:D] z8 | z8 | z8 | z8 |: z8 | z8 |1 z8 | z8 :| z8 | z8 | z8 | z8 | %215
 z8 | z8 | z8 | z8 | z8 | z8 | z8 | z8 | z8 | z8 | z8 | z8 | z8 | z8 | z8 | z8 |] z2 | z8 |] %233
V:8
[K:C] z8 | z8 | z8 | z8 | z8 | z8 | z8 | z8 | z8 | z8 | z8 | z8 | z8 | z8 | z8 | z8 |] z4 |: %17
[M:4/4] ^c2 ^c2 ^c2 ^c2 | ^c2 ^c2 ^c2 ^c2 | ^c2 ^c2 ^c2 ^c2 | ^c2 ^c2 ^c2 ^c/^c/^c | %21
 ^c2 ^c2 ^c2 ^c2 | ^c2 ^c2 ^c2 ^c2 | ^c2 ^c2 ^c2 ^c2 | ^c2 ^c2 c/c/c/c/ c/c/c/c/ |: %25
 ^c2 c2 ^c2 ^c/^c/^c | ^c2 ^c2 c2 ^c/^c/^c | ^c2 c2 ^c2 ^c/^c/^c |1 ^c2 ^c2 c2 ^c/^c/^c :|2 %29
 ^c2 ^c2 c2 ^c/^c/^c || ^c2 c2 ^c2 ^c/^c/^c | ^c2 ^c2 c2 ^c/^c/^c | ^c2 c2 ^c2 ^c/^c/^c | %33
 ^c2 ^c2 c2 ^c/^c/^c | ^c2 c2 ^c2 ^c/^c/^c | ^c2 ^c2 c2 ^c/^c/^c | ^c2 c2 ^c2 ^c/^c/^c | %37
 ^c2 ^c2 c2 ^c/^c/^c | ^c2 c2 ^c2 ^c/^c/^c | ^c2 ^c2 c2 ^c/^c/^c | ^c2 c2 ^c2 ^c/^c/^c | %41
 ^c2 ^c2 c2 ^c/^c/^c |] z4 ||[M:4/4]!p! A2 A2 A2 A2 | A2 A2 A2 A2 | A2 A2 A2 A2 | A2 A2 A2 A2 | %47
 A2 A2 A2 A2 | A2 A2 A2 A2 | A2 A2 A2 A2 |!<(! A2 A2 A2 A2!<)! |!p! A2 A2 A2 A2 | A2 A2 A2 A2 | %53
 A2 A2 A2 A2 | A2 A2 A2 A2 | A2 A2 A2 A2 | A2 A2 A2 A2 | A2 A2 A2 A2 | A2 A2 A2 A2 |: A2 A2 A2 A2 | %60
 A2 A2 A2 A2 | A2 A2 A2 A2 |1 A2 A2 A2 A2 :|2 A2 A2 A2 A2 || A2 A2 A2 A2 | A2 A2 A2 A2 | %66
 A2 A2 A2 A2 |!<(! A2 A2 A2 A2!<)! |:!p! A2 A2 A2 A2 | A2 A2 A2 A2 | A2 A2 A2 A2 | A2 A2 A2 A2 :: %72
 A2 A2 A2 A2 | A2 A2 A2 A2 |1 A2 A2 A2 A2 | A2 A2 A2 A2 :|2 A2 A2 A2 A2 || A2 A2 A2 A2 | %78
 A2 A2 A2 A2 | A2 A2 A2 A2 | A2 A2 A2 A2 | A2 A2 A2 A2 | A2 A2 A2 A2 | A2 A2 A2 A2 | A2 A2 A2 A2 | %85
!<(! A2 A2 A2 A2!<)! | z8 | z8 | z8 | z8 | z4 || z8 | z8 | z8 | z8 |: A2 ^b2 F2 ^b2 :| %96
 F2 ^b2 F/^b/ z ^b2 |: F^g^b^g F^g^b^g :| F^g^b^g F/^b/ z ^b2 |: F^g^b^g F^g^b^g | %100
 F^g^b^g F^g^b^g | F^g^b^g F^g^b^g | F^g^b^g F/^b/ z ^b2 :: F^g^b^g F^g^b^g | F^g^b^g F^g^b^g | %105
 F^g^b^g F^g^b^g | F^g^b^g F^g^b^g :| F^g^b^g F^g^b^g | F^g^b^g F^g^b^g | F^g^b^g F2 F2 | %110
[M:2/4] F2 F/F/F/F/ |[M:4/4] F^g^b^g F^g^b^g |: F^g^b^g F^g^b^g :| F^g^b^g F/^b/ z ^b2 |] z4 | z8 | %116
 z8 | z8 | z8 | A2 z A ^e z z2 | A2 z A ^e z z2 | A2 z A ^e z ^b z | A2 ^b z A^b A<^b |: %123
 A2 ^b2 AA ^b2 | AA ^b2 ^b2 ^b2 | A2 ^b2 AA ^b2 | AA ^b2 A>^b c/^b/^b | A2 ^b2 c2 ^b2 | %128
 A2 ^b2 c2 ^b2 | A2 ^b2 c2 ^b2 | AA ^b2 A>^b c/^b/^b :| A2 ^b2 A2 ^b2 | A2 ^b2 A2 ^b2 | %133
 A2 ^b2 A2 ^b2 | A2 ^b2 A2 ^b2 |: A2 ^b2 A2 ^b2 | A2 ^b2 A2 ^b2 | A2 ^b2 A2 ^b2 | A2 ^b2 A2 ^b2 :| %139
 z4 || c2 _d2 c_d z/ _d/F/F/ | c2 _d2 c_d z/ _d/F/F/ | c2 _d2 c_d z/ _d/F/F/ | %143
 c2 _d2 c_d z/ _d/F/F/ |: c2 _d2 c_d z/ _d/F/F/ | c2 _d2 c_d z/ _d/F/F/ :: c2 _d2 c_d z/ _d/F/F/ | %147
 c2 _d2 c_d z/ _d/F/F/ :| c2 _d2 c_d z/ _d/F/F/ | c2 _d2 c_d z/ _d/F/F/ |: c2 _d2 c_d z/ _d/F/F/ | %151
 c2 _d2 c_d z/ _d/F/F/ | c2 _d2 c_d z/ _d/F/F/ | c2 _d2 c_d z/ _d/F/F/ :: c2 _d2 c_d z/ _d/F/F/ | %155
 c2 _d2 c_d z/ _d/F/F/ | c2 _d2 c_d z/ _d/F/F/ | c2 _d2 c_d z/ _d/F/F/ :| c2 _d2 c_d z/ _d/F/F/ | %159
 c2 _d2 c_d z/ _d/F/F/ |: c2 _d2 c_d z/ _d/F/F/ | c2 _d2 c_d z/ _d/F/F/ | c2 _d2 c_d z/ _d/F/F/ | %163
 c2 _d2 c_d z/ _d/F/F/ :: c2 _d2 c_d z/ _d/F/F/ | c2 _d2 c_d z/ _d/F/F/ | c2 _d2 c_d z/ _d/F/F/ | %167
 c2 _d2 c_d z/ _d/F/F/ :| c2 _d2 c_d z/ _d/F/F/ | c2 _d2 c_d z/ _d/F/F/ |: c2 _d2 c_d z/ _d/F/F/ | %171
 c2 _d2 c_d z/ _d/F/F/ :: c2 _d2 c_d z/ _d/F/F/ | c2 _d2 c_d z/ _d/F/F/ |] z4 :| z8 | z8 |: %177
 F2 F2 F2 F2 | F2 F2 F2 F2 :| F2 F2 F2 F2 |!<(! F/^c/^c/^c/ ^c/^c/^c/^c/ ^c/^c/^c/^c/ F^c!<)! |: %181
!p! F^cF^c F^cF^c | F^cF^c F^cF^c | F^cF^c F^cF^c | F^cF^c F^cF^c | F^cF^c F^cF^c | F^cF^c F^cF^c | %187
 F^cF^c F^cF^c | F^cF^c F^cF^c :| z2 z!<(! ^c/^c/ ^c/^c/^c/^c/ ^c/^c/^c/^c/ | %190
 ^c/^c/^c/^c/ ^c/^c/^c/^c/ ^c/^c/^c/^c/ F^c!<)! |: F^cF^c F^cF^c | F^cF^c F^cF^c | F^cF^c F^cF^c | %194
 F^cF^c F^cF^c | F^cF^c F^cF^c | F^cF^c F^cF^c | F^cF^c F^cF^c |1 F^cF^c F^cF^c :|2 %199
 F2 ^c2 F2 ^c2 || F2 ^c2 F2 ^c2 | F2 z2 z4 |] z8 || c/c/c cc/c/ cc/c/- c/c/c | %204
 c/c/c cc/c/ cc/c/ cc | c/c/c cc/c/ cc/c/- c/c/c | c/c/c cc/c/ cc/c/ cc |: %207
 c/c/c cc/c/ cc/c/- c/c/c | c/c/c cc/c/ cc/c/ cc |1 c/c/c cc/c/ cc/c/- c/c/c | %210
 c/c/c cc/c/ cc/c/ cc :| c/c/c cc/c/ cc/c/- c/c/c | c/c/c cc/c/ cc/c/ cc | %213
 c/c/c cc/c/ cc/c/- c/c/c | c/c/c cc/c/ cc/c/ cc | c/c/c cc/c/ cc/c/- c/c/c | %216
 c/c/c cc/c/ cc/c/ cc | c/c/c cc/c/ cc/c/- c/c/c | c/c/c cc/c/ cc/c/ cc | %219
 c/c/c cc/c/ cc/c/- c/c/c | c/c/c cc/c/ cc/c/ cc | c/c/c cc/c/ cc/c/- c/c/c | %222
 c/c/c cc/c/ cc/c/ cc | c/c/c cc/c/ cc/c/- c/c/c | c/c/c cc/c/ cc/c/ cc | %225
 c/c/c cc/c/ cc/c/- c/c/c | c/c/c cc/c/ cc/c/ cc | c/c/c cc/c/ cc/c/- c/c/c | %228
 c/c/c cc/c/ cc/c/ cc | c/c/c cc/c/ cc/c/- c/c/c | c/c/c cc/c/ cc/c/ cc |] z2 | z8 |] %233
V:9
[K:C] x8 | x8 | x8 | x8 | x8 | x8 | x8 | x8 | x8 | x8 | x8 | x8 | x8 | x8 | x8 | x8 |] x4 |: %17
[M:4/4] x8 | x8 | x8 | x8 | x8 | x8 | x8 | x8 |: x8 | x8 | x8 |1 x8 :|2 x8 || x8 | x8 | x8 | x8 | %34
 x8 | x8 | x8 | x8 | x8 | x8 | x8 | x8 |] x4 ||[M:4/4] x8 | x8 | x8 | x8 | %47
 z ^c/^c/ z ^c z ^c/^c/ z ^c | z ^c/^c/ z ^c z ^c/^c/ z ^c | %49
 z ^c/^c/ c/^c/^c/^c/ ^c/^c/^c/^c/ z/ ^c/^c/^c/ | %50
 ^c/^c/^c/^c/ z/ z/ ^c/^c/ ^c/^c/^c/^c/ ^c/^c/^c/^c/ | z ^c/^c/ z ^c z ^c/^c/ z ^c | %52
 z ^c/^c/ z ^c z ^c/^c/ z ^c | z ^c/^c/ z ^c z ^c/^c/ z ^c | z ^c/^c/ z ^c z ^c/^c/ z ^c | %55
 z ^c/^c/ z ^c z ^c/^c/ z ^c | z ^c/^c/ z ^c z ^c/^c/ z ^c | z ^c/^c/ z ^c z ^c/^c/ z ^c | %58
 z ^c/^c/ z ^c z ^c/^c/ z ^c |: z ^c/^c/ z ^c z ^c/^c/ z ^c | z ^c/^c/ z ^c z ^c/^c/ z ^c | %61
 z ^c/^c/ z ^c z ^c/^c/ z ^c |1 z ^c/^c/ z ^c z ^c/^c/ z ^c :|2 z ^c/^c/ z ^c z ^c/^c/ z ^c || %64
 z ^c/^c/ z ^c z ^c/^c/ z ^c | z ^c/^c/ z ^c z ^c/^c/ z ^c | %66
 z ^c/^c/ c/^c/^c/^c/ z ^c/^c/ z/ ^c/^c/^c/ | %67
 ^c/^c/^c/^c/ ^c/^c/^c/^c/ ^c/^c/^c/^c/ ^c/^c/^c/^c/ |: z ^c/^c/ z ^c z ^c/^c/ z ^c | %69
 z ^c/^c/ z ^c z ^c/^c/ z ^c | z ^c/^c/ z ^c z ^c/^c/ z ^c | z ^c/^c/ z ^c z ^c/^c/ z ^c :: %72
 z ^c/^c/ z ^c z ^c/^c/ z ^c | z ^c/^c/ z ^c z ^c/^c/ z ^c |1 z ^c/^c/ z ^c z ^c/^c/ z ^c | %75
 z ^c/^c/ z ^c z ^c/^c/ z ^c :|2 z ^c/^c/ z ^c z ^c/^c/ z ^c || z ^c/^c/ z ^c z ^c/^c/ z ^c | %78
 z ^c/^c/ z ^c z ^c/^c/ z ^c | z ^c/^c/ z ^c z ^c/^c/ z ^c | z ^c/^c/ z ^c z ^c/^c/ z ^c | %81
 z ^c/^c/ z ^c z ^c/^c/ z ^c | z ^c/^c/ z ^c z ^c/^c/ z ^c | z ^c/^c/ z ^c z ^c/^c/ z ^c | %84
 z ^c/^c/ c/^c/^c/^c/ z ^c/^c/ z/ ^c/^c/^c/ | ^c/^c/^c/^c/ ^c/^c/^c/^c/ ^c/^c/^c/^c/ ^c/^c/^c/ z/ | %86
 x8 | x8 | x8 | x8 | x4 || x8 | x8 | x8 | x8 |: x8 :| x7 ^g |: x8 :| x5 ^g x ^g |: x8 | x8 | x8 | %102
 x5 ^g x ^g :: x8 | x8 | x8 | x8 :| x8 | x8 | x8 |[M:2/4] x4 |[M:4/4] x8 |: x8 :| z4 z ^g x ^g |] %114
 x4 | x8 | x8 | x8 | x8 | x8 | x8 | x8 | x8 |: x8 | x8 | x8 | x8 | x8 | x8 | x8 | x8 :| x8 | x8 | %133
 x8 | x8 |: x8 | x8 | x8 | x8 :| x4 || x8 | x8 | x8 | x8 |: x8 | x8 :: x8 | x8 :| x8 | x8 |: x8 | %151
 x8 | x8 | x8 :: x8 | x8 | x8 | x8 :| x8 | x8 |: x8 | x8 | x8 | x8 :: x8 | x8 | x8 | x8 :| x8 | %169
 x8 |: x8 | x8 :: x8 | x8 |] x4 :| x8 | x8 |: x8 | x8 :| x8 | x8 |: x8 | x8 | x8 | x8 | x8 | x8 | %187
 x8 | x8 :| x8 | x8 |: x8 | x8 | x8 | x8 | x8 | x8 | x8 |1 x8 :|2 x8 || x8 | x8 |] x8 || x8 | x8 | %205
 ^b2 z2 ^b2 z2 | ^b2 z2 ^b2 z2 |: F4 F4 | F4 F4 |1 F4 F4 | F4 F4 :| F4 F4 | F4 F4 | F4 F4 | F4 F4 | %215
 F4 F4 | F4 F4 | F4 F4 | F4 F4 | F4 F4 | F4 F4 | F4 F4 | F4 F4 | F4 F4 | F4 F4 | F4 F4 | F4 F4 | %227
 F4 F4 | F4 F4 | F4 F4 | F4 F4 |] x2 | x8 |] %233

